X:4582
T:Neil Sinclair's Cream Tease
O:england
M:6/8
L:1/8
Q:140
C:Stephen P McNally
K:D
|:d>dd f>af|g>fe c>BA|d>dd f>af|g>ec d2 A|
d>dd f>af|g>fe c>BA|B>cd c>de|1 f>dc d2 A:|2 f>dc d2 f
|:g>gg B>BB|c>de c>BA|g>gg B>cd|e>Bc d2 f|
g>gg B>BB|c>de c>BA|B>cd c>de|1 f>dc d2 f:|2 f>dc d2 A
